assets/Woman wearing turban/Medium-Light/Flat/woman_wearing_turban_flat_medium-light.svg

<svg width="32" height="32" viewBox="0 0 32 32" fill="none" xmlns="http://www.w3.org/2000/svg">
<path d="M10.14 18.6398C10.14 20.3353 8.76551 21.7098 7.07 21.7098C5.37449 21.7098 4 20.3353 4 18.6398C4 16.9443 5.37449 15.5698 7.07 15.5698C8.76551 15.5698 10.14 16.9443 10.14 18.6398Z" fill="#E4B29A"/>
<path d="M27.987 18.6398C27.987 20.3353 26.6126 21.7098 24.917 21.7098C23.2215 21.7098 21.847 20.3353 21.847 18.6398C21.847 16.9443 23.2215 15.5698 24.917 15.5698C26.6126 15.5698 27.987 16.9443 27.987 18.6398Z" fill="#E4B29A"/>
<path d="M13.5261 8C9.38806 8 6.09006 11.24 6.256 15.13L6.51528 21.27C6.74344 26.5 10.923 30 16.0048 30C21.0866 30 25.2662 26.5 25.484 21.27L25.7432 15.13C25.9196 11.24 22.6216 8 18.4835 8H13.5261Z" fill="#EEBFAA"/>
<path d="M11.1728 15.75C12.2528 15.75 13.1528 16.51 13.7028 17.35C13.1865 17.5103 12.6826 17.6554 12.1818 17.7995C11.4022 18.0239 10.6305 18.246 9.83277 18.52L8.90277 17.69C8.52277 17.34 8.55277 16.73 8.97277 16.43C9.58277 15.99 10.4028 15.75 11.1728 15.75Z" fill="black"/>
<path d="M20.9874 15.8101C19.9074 15.8101 19.0074 16.5701 18.4574 17.4101C18.9607 17.5652 19.4496 17.706 19.934 17.8455C20.7297 18.0747 21.5131 18.3003 22.3274 18.5801L23.2574 17.7501C23.6374 17.4001 23.6074 16.7901 23.1874 16.4901C22.5774 16.0501 21.7574 15.8101 20.9874 15.8101Z" fill="black"/>
<path d="M8.89279 17.9799C9.19279 16.8099 10.2528 15.9399 11.5128 15.9399C12.8228 15.9399 13.9128 16.8799 14.1528 18.1199C14.2028 18.3899 13.9928 18.6399 13.7128 18.6399H9.41279C9.06279 18.6399 8.81279 18.3099 8.89279 17.9799Z" fill="white"/>
<path d="M23.2674 18.04C22.9674 16.87 21.9074 16 20.6474 16C19.3374 16 18.2474 16.94 18.0074 18.18C17.9574 18.45 18.1674 18.7 18.4474 18.7H22.7474C23.0974 18.7 23.3474 18.37 23.2674 18.04Z" fill="white"/>
<path d="M10.1927 18.18C10.1927 17.23 10.9627 16.46 11.9127 16.46C12.8627 16.46 13.6327 17.23 13.6327 18.18C13.6327 18.34 13.6127 18.49 13.5727 18.64H10.2527C10.2127 18.49 10.1927 18.34 10.1927 18.18Z" fill="#7D4533"/>
<path d="M21.9673 18.24C21.9673 17.29 21.1973 16.52 20.2473 16.52C19.2973 16.52 18.5273 17.29 18.5273 18.24C18.5273 18.4 18.5473 18.55 18.5873 18.7H21.9073C21.9473 18.55 21.9673 18.4 21.9673 18.24Z" fill="#7D4533"/>
<path d="M11.9127 17.2002C12.4527 17.2002 12.8927 17.6402 12.8927 18.1802C12.8927 18.3502 12.8527 18.5002 12.7727 18.6402H11.0327C10.9627 18.5002 10.9227 18.3502 10.9227 18.1802C10.9227 17.6402 11.3727 17.2002 11.9127 17.2002Z" fill="black"/>
<path d="M20.2473 17.2603C19.7073 17.2603 19.2673 17.7003 19.2673 18.2403C19.2673 18.4103 19.3073 18.5603 19.3873 18.7003H21.1273C21.1973 18.5603 21.2373 18.4103 21.2373 18.2403C21.2373 17.7003 20.7873 17.2603 20.2473 17.2603Z" fill="black"/>
<path d="M11.6328 17.4999C11.6328 17.6712 11.494 17.8099 11.3228 17.8099C11.1516 17.8099 11.0128 17.6712 11.0128 17.4999C11.0128 17.3287 11.1516 17.1899 11.3228 17.1899C11.494 17.1899 11.6328 17.3287 11.6328 17.4999Z" fill="white"/>
<path d="M19.9774 17.56C19.9774 17.7312 19.8386 17.87 19.6674 17.87C19.4962 17.87 19.3574 17.7312 19.3574 17.56C19.3574 17.3888 19.4962 17.25 19.6674 17.25C19.8386 17.25 19.9774 17.3888 19.9774 17.56Z" fill="white"/>
<path d="M22.5334 14.4557C22.835 14.064 22.8348 14.0639 22.8346 14.0638C23.0534 14.2322 23.0946 14.5464 22.9261 14.7652C22.7581 14.9836 22.4451 15.0247 22.2264 14.8575L22.2211 14.8536C22.2151 14.8493 22.2046 14.8417 22.1897 14.8315C22.1597 14.811 22.1123 14.7799 22.0486 14.742C21.9208 14.6662 21.7293 14.5644 21.4838 14.4683C20.9926 14.2758 20.2937 14.1085 19.4584 14.2068C19.1841 14.2391 18.9356 14.0429 18.9034 13.7686C18.8711 13.4944 19.0673 13.2459 19.3415 13.2136C20.3762 13.0919 21.2423 13.2996 21.8486 13.5372C22.1519 13.656 22.3922 13.783 22.5592 13.8822C22.6428 13.9318 22.7084 13.9747 22.7547 14.0064C22.7778 14.0223 22.7962 14.0354 22.8096 14.0452L22.826 14.0573L22.8314 14.0613L22.8334 14.0629L22.8346 14.0638L22.5334 14.4557Z" fill="#A56953"/>
<path d="M9.32502 14.064C9.10621 14.2325 9.06538 14.5464 9.23383 14.7652C9.40197 14.9836 9.71504 15.0247 9.93379 14.8574L9.93892 14.8536C9.94486 14.8493 9.95538 14.8417 9.97032 14.8315C10.0002 14.811 10.0477 14.7799 10.1114 14.742C10.2391 14.6662 10.4307 14.5644 10.6762 14.4683C11.1673 14.2758 11.8663 14.1085 12.7016 14.2068C12.9759 14.2391 13.2243 14.0429 13.2566 13.7686C13.2889 13.4944 13.0927 13.2459 12.8185 13.2136C11.7838 13.0919 10.9177 13.2996 10.3114 13.5372C10.0081 13.656 9.7678 13.783 9.60082 13.8822C9.51722 13.9318 9.45162 13.9747 9.40532 14.0064C9.38216 14.0223 9.36378 14.0354 9.35036 14.0452L9.33393 14.0573L9.32853 14.0613L9.32654 14.0629L9.32502 14.064Z" fill="#A56953"/>
<path d="M15.9982 23.8886C15.0484 23.8886 14.1652 23.6648 13.4149 23.2825C13.1584 23.152 12.8925 23.4411 13.0445 23.6742C13.6713 24.6253 14.7635 25.25 15.9982 25.25C17.2328 25.25 18.325 24.6253 18.9519 23.6742C19.1133 23.4411 18.8379 23.152 18.5815 23.2825C17.8312 23.6648 16.9479 23.8886 15.9982 23.8886Z" fill="#990838"/>
<path d="M15.2891 17.5175L14.2969 20.6375C14.0923 21.2775 14.5833 21.9275 15.2686 21.9275H16.7314C17.4167 21.9275 17.9077 21.2775 17.7031 20.6375L16.7109 17.5175C16.5063 16.8275 15.5039 16.8275 15.2891 17.5175Z" fill="#D19479"/>
<path d="M20.15 2H22.62C25.93 2 28.47 4.96 27.97 8.23L27.2 13.18C27.07 13.98 26.46 14.59 25.7 14.74L25.71 14.42V13.84C25.7 13.55 25.67 13.26 25.62 12.97C25.31 11.77 24.22 10.89 22.92 10.89H15.47L20.15 2Z" fill="#E6E6E6"/>
<path d="M16.1 2H9.57003C6.26003 2 3.72003 4.96 4.23003 8.23L5.00003 13.18C5.12003 13.97 5.73003 14.59 6.50003 14.74L6.49003 14.42V13.84C6.50003 13.54 6.53003 13.25 6.58003 12.97C6.90003 11.77 7.99003 10.89 9.28003 10.89H15.47C17.5 10.89 19.29 9.54 19.85 7.59L21.09 3.27C21.28 2.63 20.8 2 20.15 2H16.1Z" fill="#F4F4F4"/>
<path d="M19.3204 3.48541C19.169 4.12825 18.9781 4.7131 18.7495 5.21452C18.3087 6.1808 17.7118 6.90414 16.91 7.46023C15.53 8.42023 13.55 8.87022 10.67 8.87022C7.97778 8.87022 6.44508 9.67533 5.59144 10.4664L5.56436 10.4917C5.54395 10.511 5.52394 10.5302 5.50433 10.5494C5.4232 10.6287 5.34877 10.7076 5.28055 10.7853C5.02533 11.0758 4.85701 11.3487 4.75 11.5602L4.53 10.1502C4.64 10.0202 4.76 9.89023 4.9 9.78023C6.56 8.23023 8.95 7.90023 10.67 7.90023C13.4501 7.90023 15.2084 7.46892 16.3564 6.66443C16.5159 6.55261 16.6647 6.43279 16.8017 6.30671C17.2584 5.88653 17.5965 5.38805 17.8569 4.81706L17.86 4.81023L17.8264 4.82871C17.4159 5.05303 16.9093 5.26094 16.2932 5.40368C15.4219 5.60553 14.3314 5.6771 12.9827 5.48063C12.6236 5.43129 12.2599 5.37142 11.9042 5.31276C11.7555 5.28823 11.6073 5.26379 11.46 5.24023C9.39614 4.90003 7.48624 4.58839 5.91251 4.95354C5.80404 4.97871 5.69718 5.00709 5.59196 5.0389C5.20455 5.15602 4.83958 5.31959 4.5 5.54023C4.69 5.01023 4.97 4.52023 5.31 4.08023C7.17251 3.53243 9.40207 3.89728 11.5936 4.2559L11.6215 4.26047C11.7516 4.28172 11.8832 4.30367 12.0155 4.32576C12.3794 4.38649 12.758 4.44946 13.1229 4.50065C15.2106 4.80205 16.5607 4.39856 17.3765 3.93995C17.4283 3.91085 17.4779 3.88152 17.5254 3.85213C18.1666 3.45573 18.4255 3.04914 18.43 3.04023C18.56 2.83023 18.82 2.75023 19.04 2.84023C19.0955 2.86195 19.1446 2.8924 19.1865 2.92935C19.318 3.04548 19.3779 3.22573 19.34 3.40023L19.3204 3.48541Z" fill="#D3D3D3"/>
<path d="M21.4476 8.80114C23.3957 8.83839 25.2097 9.66477 26.5134 11.0327C26.618 11.1425 26.7194 11.2558 26.8173 11.3725C27.0126 11.6052 27.194 11.8514 27.3599 12.1098L27.5699 10.7398C26.0705 8.95622 23.8508 7.8641 21.4567 7.82114C21.4079 7.82026 21.3589 7.81982 21.3099 7.81982C21.0399 7.81982 20.8199 8.03982 20.8199 8.30982C20.8199 8.57982 21.0399 8.79982 21.3099 8.79982C21.3559 8.79982 21.4018 8.80026 21.4476 8.80114Z" fill="#D3D3D3"/>
<path d="M26.9654 6.6558C27.0532 6.72719 27.1394 6.80066 27.2239 6.87618C27.5097 7.13151 27.7761 7.41018 28.02 7.71006C28.05 7.17006 28 6.64006 27.8799 6.14006C26.4453 4.86153 24.5724 4.09736 22.5868 4.06139C22.5379 4.0605 22.489 4.06006 22.44 4.06006C22.17 4.06006 21.95 4.28006 21.95 4.55006C21.95 4.82006 22.17 5.04006 22.44 5.04006C22.4859 5.04006 22.5317 5.0405 22.5775 5.04139C24.2041 5.07283 25.7412 5.66058 26.9654 6.6558Z" fill="#D3D3D3"/>
</svg>

<svg xmlns="http://www.w3.org/2000/svg" width="32" height="32" fill="none"><path fill="#E4B29A" d="M10.14 18.64a3.07 3.07 0 1 1-6.14 0 3.07 3.07 0 0 1 6.14 0ZM27.987 18.64a3.07 3.07 0 1 1-6.14 0 3.07 3.07 0 0 1 6.14 0Z"/><path fill="#EEBFAA" d="M13.526 8c-4.138 0-7.436 3.24-7.27 7.13l.26 6.14C6.742 26.5 10.922 30 16.004 30c5.082 0 9.261-3.5 9.479-8.73l.26-6.14C25.92 11.24 22.621 8 18.483 8h-4.958Z"/><path fill="#000" d="M11.173 15.75c1.08 0 1.98.76 2.53 1.6-.516.16-1.02.305-1.521.45-.78.224-1.552.446-2.35.72l-.93-.83a.813.813 0 0 1 .07-1.26c.61-.44 1.43-.68 2.2-.68ZM20.987 15.81c-1.08 0-1.98.76-2.53 1.6.504.155.993.296 1.477.436.796.229 1.58.454 2.393.734l.93-.83c.38-.35.35-.96-.07-1.26-.61-.44-1.43-.68-2.2-.68Z"/><path fill="#fff" d="M8.893 17.98c.3-1.17 1.36-2.04 2.62-2.04 1.31 0 2.4.94 2.64 2.18.05.27-.16.52-.44.52h-4.3c-.35 0-.6-.33-.52-.66ZM23.267 18.04a2.713 2.713 0 0 0-2.62-2.04c-1.31 0-2.4.94-2.64 2.18-.05.27.16.52.44.52h4.3c.35 0 .6-.33.52-.66Z"/><path fill="#7D4533" d="M10.193 18.18a1.72 1.72 0 1 1 3.44 0c0 .16-.02.31-.06.46h-3.32c-.04-.15-.06-.3-.06-.46ZM21.967 18.24a1.72 1.72 0 1 0-3.44 0c0 .16.02.31.06.46h3.32c.04-.15.06-.3.06-.46Z"/><path fill="#000" d="M11.913 17.2c.54 0 .98.44.98.98 0 .17-.04.32-.12.46h-1.74a.99.99 0 0 1 .88-1.44ZM20.247 17.26c-.54 0-.98.44-.98.98 0 .17.04.32.12.46h1.74a.99.99 0 0 0-.88-1.44Z"/><path fill="#fff" d="M11.633 17.5a.31.31 0 1 1-.62 0 .31.31 0 0 1 .62 0ZM19.977 17.56a.31.31 0 1 1-.62 0 .31.31 0 0 1 .62 0Z"/><path fill="#A56953" d="m22.533 14.456.302-.392a.5.5 0 0 1-.609.793l-.005-.003-.031-.022a3.903 3.903 0 0 0-.706-.363 4.193 4.193 0 0 0-2.026-.262.5.5 0 1 1-.116-.993 5.194 5.194 0 0 1 3.217.668 3.591 3.591 0 0 1 .25.163l.017.012.005.004.002.002h.002l-.302.393ZM9.325 14.064a.5.5 0 0 0 .609.793l.005-.003.031-.022a3.898 3.898 0 0 1 .706-.363 4.193 4.193 0 0 1 2.026-.262.5.5 0 1 0 .117-.993 5.194 5.194 0 0 0-3.218.668 3.591 3.591 0 0 0-.25.163l-.017.012-.005.004-.002.002-.002.001Z"/><path fill="#990838" d="M15.998 23.889c-.95 0-1.833-.224-2.583-.607-.257-.13-.522.16-.37.392a3.53 3.53 0 0 0 2.953 1.576 3.53 3.53 0 0 0 2.954-1.576c.161-.233-.114-.522-.37-.392a5.692 5.692 0 0 1-2.584.607Z"/><path fill="#D19479" d="m15.29 17.517-.993 3.12c-.205.64.286 1.29.972 1.29h1.462c.686 0 1.177-.65.972-1.29l-.992-3.12c-.205-.69-1.207-.69-1.422 0Z"/><path fill="#E6E6E6" d="M20.15 2h2.47c3.31 0 5.85 2.96 5.35 6.23l-.77 4.95c-.13.8-.74 1.41-1.5 1.56l.01-.32v-.58c-.01-.29-.04-.58-.09-.87-.31-1.2-1.4-2.08-2.7-2.08h-7.45L20.15 2Z"/><path fill="#F4F4F4" d="M16.1 2H9.57C6.26 2 3.72 4.96 4.23 8.23L5 13.18c.12.79.73 1.41 1.5 1.56l-.01-.32v-.58c.01-.3.04-.59.09-.87a2.8 2.8 0 0 1 2.7-2.08h6.19c2.03 0 3.82-1.35 4.38-3.3l1.24-4.32A.986.986 0 0 0 20.15 2H16.1Z"/><path fill="#D3D3D3" d="M19.32 3.485a9.398 9.398 0 0 1-.57 1.73c-.441.966-1.038 1.69-1.84 2.245-1.38.96-3.36 1.41-6.24 1.41-2.692 0-4.225.805-5.079 1.596l-.027.026a4.792 4.792 0 0 0-.283.293c-.256.29-.424.564-.531.775l-.22-1.41c.11-.13.23-.26.37-.37C6.56 8.23 8.95 7.9 10.67 7.9c2.78 0 4.538-.431 5.686-1.236.16-.111.309-.231.446-.357.456-.42.794-.919 1.055-1.49l.003-.007-.034.019a6.01 6.01 0 0 1-1.533.575c-.871.202-1.962.273-3.31.077-.36-.05-.723-.11-1.079-.168a92.282 92.282 0 0 0-.444-.073c-2.064-.34-3.974-.652-5.547-.286a5.059 5.059 0 0 0-.321.085c-.387.117-.752.28-1.092.501.19-.53.47-1.02.81-1.46 1.863-.548 4.092-.183 6.284.176l.027.004.394.066c.364.06.743.123 1.108.175 2.088.301 3.438-.102 4.254-.561.051-.03.1-.058.148-.088.642-.396.9-.803.905-.812a.497.497 0 0 1 .91.36l-.02.085ZM21.448 8.801a7.19 7.19 0 0 1 5.912 3.309l.21-1.37a8.186 8.186 0 0 0-6.26-2.92.49.49 0 0 0 0 .98l.138.001ZM26.965 6.656A7.28 7.28 0 0 1 28.02 7.71c.03-.54-.02-1.07-.14-1.57a8.192 8.192 0 0 0-5.44-2.08.49.49 0 0 0 0 .98l.137.001a7.179 7.179 0 0 1 4.388 1.615Z"/></svg>
